ix/unlock_bold.svg

<svg viewBox="0 0 24 24" fill="none" xmlns="http://www.w3.org/2000/svg" height="1em" width="1em">
  <path d="M12.0011 17.3498C12.9013 17.3498 13.6311 16.6201 13.6311 15.7198C13.6311 14.8196 12.9013 14.0898 12.0011 14.0898C11.1009 14.0898 10.3711 14.8196 10.3711 15.7198C10.3711 16.6201 11.1009 17.3498 12.0011 17.3498Z" fill="#292D32"/>
  <path d="M16.65 9.44H7.35C7.27 9.44 7.2 9.44 7.12 9.44V8.28C7.12 5.35 7.95 3.4 12 3.4C16.33 3.4 16.88 5.51 16.88 7.35C16.88 7.74 17.19 8.05 17.58 8.05C17.97 8.05 18.28 7.74 18.28 7.35C18.28 3.8 16.17 2 12 2C6.37 2 5.72 5.58 5.72 8.28V9.53C2.92 9.88 2 11.3 2 14.79V16.65C2 20.75 3.25 22 7.35 22H16.65C20.75 22 22 20.75 22 16.65V14.79C22 10.69 20.75 9.44 16.65 9.44ZM12 18.74C10.33 18.74 8.98 17.38 8.98 15.72C8.98 14.05 10.34 12.7 12 12.7C13.66 12.7 15.02 14.06 15.02 15.72C15.02 17.39 13.67 18.74 12 18.74Z" fill="#292D32"/>
</svg>

<svg viewBox="0 0 24 24" fill="none" xmlns="http://www.w3.org/2000/svg" height="1em" width="1em">
  <path d="M12.001 17.35a1.63 1.63 0 1 0 0-3.26 1.63 1.63 0 0 0 0 3.26Z" fill="#292D32"/>
  <path d="M16.65 9.44H7.12V8.28c0-2.93.83-4.88 4.88-4.88 4.33 0 4.88 2.11 4.88 3.95 0 .39.31.7.7.7.39 0 .7-.31.7-.7C18.28 3.8 16.17 2 12 2 6.37 2 5.72 5.58 5.72 8.28v1.25C2.92 9.88 2 11.3 2 14.79v1.86C2 20.75 3.25 22 7.35 22h9.3c4.1 0 5.35-1.25 5.35-5.35v-1.86c0-4.1-1.25-5.35-5.35-5.35ZM12 18.74c-1.67 0-3.02-1.36-3.02-3.02 0-1.67 1.36-3.02 3.02-3.02a3.03 3.03 0 0 1 3.02 3.02c0 1.67-1.35 3.02-3.02 3.02Z" fill="#292D32"/>
</svg>
